static/scenes/snowbox/img/icons/rotate-arrow.svg

<svg width="29" height="25" viewBox="0 0 29 25" fill="none" xmlns="http://www.w3.org/2000/svg">
<path fill-rule="evenodd" clip-rule="evenodd" d="M7.6688 15.4913C8.32168 13.8523 9.17903 12.0135 10.2792 10.2103C11.9076 7.54142 14.1497 4.81582 17.1795 2.99348C20.2766 1.1307 24.0681 0.294154 28.528 1.25609L27.4738 6.1437C24.2837 5.45564 21.7876 6.05659 19.7566 7.27818C17.6583 8.54022 15.9316 10.5459 14.5475 12.8145C13.5409 14.4643 12.7585 16.1823 12.1703 17.7079L17.7363 15.6544L19.467 20.3454L9.16697 24.1454L7.15312 24.8884L6.11407 23.0101L0.914062 13.6101L5.28923 11.1898L7.6688 15.4913Z" fill="white"/>
</svg>

<svg xmlns="http://www.w3.org/2000/svg" width="29" height="25" fill="none"><path fill-rule="evenodd" d="M7.67 15.49c.653-1.64 1.5-3.478 2.6-5.28 1.628-2.67 3.87-5.394 6.9-7.217 3.097-1.863 6.89-2.7 11.348-1.737l-1.054 4.888c-3.2-.688-5.686-.087-7.717 1.134-2.098 1.262-3.825 3.268-5.21 5.536-1.007 1.65-1.79 3.368-2.377 4.893l5.566-2.053 1.73 4.69-12.314 4.543L.914 13.6 5.29 11.2l2.38 4.302z" fill="#fff"/></svg>
